X:1
T:Title
%%score 1 ( 2 3 )
L:1/8
Q:1/4=75
M:6/8
K:A
V:1 treble nm="Strings 1, SOPRANO ALTO"
V:2 bass nm="Strings 1, TENOR BASS"
V:3 bass 
V:1
 [CE]>[CE][CE] [Ec]>[EB][EA] | [FA]3 [DF]3 | [CE]>[A,C][CE] [EA]>[EB][Ec] | [EB]6 | %4
 [CE]>[CE][CE] [Ec]>[EB][EA] | [FA]3 [DF]3 | [DE]2 [DE] [DB]>.[CA][DG] | [CA]6 | %8
 [GB]2 [=G^A] [^GB][=Ac][GB] | [GB]3 [EG]2 [GB] | [FB]2 [FB] [Ac]2 [Ac] | [GB]6 | %12
 [CE]2 [CE] [Ec]>[EB][EA] | [FA]3 [DF]3 | [CE]2 [EA] [EG]>[EA][EB] | [EA]6 |] %16
V:2
 [A,,A,]>[A,,A,][A,,A,] [A,,A,]>[B,,G,][C,A,] | [D,A,]3 [D,A,]3 | %2
w: 1.~See~ the~ great~ prom is es,~|broth er,~|
 [A,,A,]>[A,,E,][A,,A,] [C,A,]>[B,,G,][A,,A,] | [E,G,]6 | A,>A,A, [A,,A,]>[B,,G,][C,A,] | %5
w: Are~ they~ so~ hard~ to~ be|lieve?~|How~ can~ you~ doubt~ the~ dear~|
 [D,A,]3 [D,A,]3 | [E,G,]2 [E,G,] G,>A,[E,B,] | [A,,A,]6 | [E,E]2 [E,E] [E,E][E,E][E,E] | %9
w: Sav ior?~|Why~ you~ ask~ and~ re|ceive?~||
 [E,E]3 [E,B,]2 [E,E] | [B,,^D]2 [B,,D] [B,,D]2 [B,,D] | [E,E]6 | A,2 A, [A,,A,]>[B,,G,][C,A,] | %13
w: ||||
 [D,A,]3 [D,A,]3 | [E,A,]2 [E,C] [E,B,]>[E,C][E,D] | [A,,C]6 |] %16
w: |||
V:3
 x6 | x6 | x6 | x6 | x6 | x6 | z3 .E,3 | x6 | x6 | x6 | x6 | x6 | x6 | x6 | x6 | x6 |] %16

